T: John McGinley's
M: 4/4
L: 1/8
K: Ador
EAA(B cG)AG|EAA(G EG)EC|EAA(B cA)Bc|1 d/d/(d g)(e dc)AG:|2 d/d/(d g)(e dc)A(a||
gc)e(c Ac)[cG]e|gce(g ag)ea|gce(c Ac)GE|GAc(d "4"ed)de|
gce(c Gc)[cG]e|gce(g ag)ed|c/c/(c g)c Gcg(c|"4"ed)ce dcAG||
"Variation A1"
|E/F/(G A)(B cG)AG|
